X: 040059
T: Dinny Delaney's
S: M. Rafferty
Z: B.Black
R: reel
M: 4/4
L: 1/8
K: Ador
ABAG EF G2 | A2 AB cded | ABAG EF G2 | aged cAdc |
ABAG EF G2 | A2 AB cded | ABAG EF G2 | aged cA A2 ||
egdg egdc | BG G2 Bc d2 | edeg e2 ab | aged cA A2 |
ag e2 aged | cA A2 EF G2 | AGAB cdea | g2 ea gedB ||
